!!!OTL: Der Lohn.
!!!OTL-incipit: ES RITT EIN HERR UND AUCH SEIN KNECHT
!!!ARE: Europa, Mitteleuropa, Deutschland, Niederrhein
!!!SCT: Z1067
!!!TXL: @@DE
!!!YEM: Copyright 1995, estate of Helmut Schaffrath.
**kern	**text
*ICvox	*
*M3/8	*
*k[b-e-]	*
*g:	*
!LO:TX:a:t=Vom Niederrhein.	!
{8d	Es
=1	=1
4f	ritt
8f#	ein
=2	=2
4g	Herr
(16aL	und
16b-J)	.
=3	=3
4cc	auch
8b-	ſein
=4	=4
4a}	Knecht,
{8a	es
=5	=5
4b-	ritt
8cc	ein
=6	=6
8ddL	Herr
8aJ	.
8dd	und
=7	=7
4cc	auch
8b-	ſein
=8	=8
4a}	Knecht,
{8g	des
=9	=9
8ddL	Mor-
8ccJ	.
8ee-	-gens
=10	=10
8ddL	früh,
8aJ	.
8b-	des
=11	=11
8gL	A-
8aJ	.
16gL	-bends
16e-J	.
=12	=12
4d;}	ſpat,
{16aL	des
16b-J	.
=13	=13
8ccL	A-
8b-J	.
8a	-bends
=14	=14
4g;}	ſpat!
==	==
!!!AGN: Romanze, Ballade
!!!ONB: ESAC (Essen Associative Code) Database: ZUCCAL
!!!AMT: simple triple
!!!AIN: vox
!!!EED: Helmut Schaffrath
!!!EEV: 1.0
!!!GTL: II. Gau- Leuschen.
!!!URL-scan: https://www.digitale-sammlungen.de/de/view/bsb11160573?page=148
!!!ENC: Anna Maria Matuszewska
!!!EEV: 2025/03/02
*-	*-
